dist/images/dist/mir.svg

<svg width="100" height="50" viewBox="0 0 100 50" fill="none" xmlns="http://www.w3.org/2000/svg">
<g clip-path="url(#clip0_1492_17965)">
<path fill-rule="evenodd" clip-rule="evenodd" d="M28.6664 12.7642V12.7756C28.655 12.7756 25.1198 12.7642 24.1769 16.0462C23.3128 19.0563 20.8778 27.3658 20.8105 27.5947H20.1367C20.1367 27.5947 17.6444 19.0993 16.7688 16.0347C15.8274 12.7541 12.2807 12.7656 12.2807 12.7656H4.19873V37.7369H12.2807V22.9049H12.9531L17.6673 37.7355H23.2799L27.9926 22.9164H28.6664V37.7355H36.7484V12.7642H28.6664ZM58.1845 12.7642C58.1845 12.7642 55.8167 12.9716 54.7065 15.3823L48.9809 27.5947H48.307V12.7642H40.2264V37.7355H47.8578C47.8578 37.7355 50.3386 37.518 51.4488 35.1187L57.0614 22.9049H57.7338V37.7355H65.8158V12.7642H58.1845ZM69.4083 24.1038V37.7355H77.4903V29.7751H86.2447C90.0603 29.7751 93.2923 27.4087 94.4941 24.1053H69.4083V24.1038Z" fill="#3E764F"/>
<path fill-rule="evenodd" clip-rule="evenodd" d="M86.2449 12.7642H68.2754C69.1739 17.5184 72.8436 21.334 77.5906 22.5787C78.6936 22.8688 79.8294 23.0155 80.9699 23.0151H94.819C94.9435 22.4471 94.9993 21.8705 94.9993 21.2696C94.9993 16.5698 91.0835 12.7642 86.2449 12.7642Z" fill="url(#paint0_linear_1492_17965)"/>
</g>
<defs>
<linearGradient id="paint0_linear_1492_17965" x1="68.2783" y1="17.8889" x2="94.9993" y2="17.8889" gradientUnits="userSpaceOnUse">
<stop stop-color="#47B1FB"/>
<stop offset="0.5" stop-color="#1785EB"/>
<stop offset="1" stop-color="#1F5DD8"/>
</linearGradient>
<clipPath id="clip0_1492_17965">
<rect width="91.5644" height="25.7525" fill="white" transform="translate(4 12)"/>
</clipPath>
</defs>
</svg>

<svg width="100" height="50" fill="none" xmlns="http://www.w3.org/2000/svg"><g clip-path="url(#a)" fill-rule="evenodd" clip-rule="evenodd"><path d="M28.666 12.764v.012c-.011 0-3.546-.012-4.49 3.27-.863 3.01-3.298 11.32-3.365 11.549h-.674s-2.493-8.496-3.368-11.56c-.942-3.28-4.488-3.27-4.488-3.27H4.199v24.972h8.082V22.905h.672l4.714 14.83h5.613l4.713-14.819h.673v14.82h8.082V12.764h-8.082Zm29.518 0s-2.367.208-3.477 2.618L48.98 27.595h-.674v-14.83h-8.08v24.97h7.63s2.482-.217 3.592-2.616l5.612-12.214h.673v14.83h8.082v-24.97h-7.632Zm11.224 11.34v13.632h8.082v-7.96h8.755c3.815 0 7.047-2.367 8.25-5.67H69.407v-.002Z" fill="#3E764F"/><path d="M86.245 12.764h-17.97c.899 4.754 4.569 8.57 9.316 9.815 1.103.29 2.238.436 3.379.436h13.849c.124-.568.18-1.145.18-1.745 0-4.7-3.915-8.506-8.754-8.506Z" fill="url(#b)"/></g><defs><linearGradient id="b" x1="68.278" y1="17.889" x2="94.999" y2="17.889" gradientUnits="userSpaceOnUse"><stop stop-color="#47B1FB"/><stop offset=".5" stop-color="#1785EB"/><stop offset="1" stop-color="#1F5DD8"/></linearGradient><clipPath id="a"><path fill="#fff" transform="translate(4 12)" d="M0 0h91.564v25.753H0z"/></clipPath></defs></svg>
